X: 100416
M: 6/8
L: 1/8
K: G
(ud/c/) |\
|: B/c/ |\
dgd ecA | dBG AFD | dgd eag | fef g2f/g/ |\
afd gdB | ecA dBG | EFG Adc | BGG G2 :|


